X: 2120
T: Tatter Jack Walsh
M:6/8
L:1/8
R:Double Jig
K:DMix
|:e|~f3 ded|cAB c2e|dcA GFG|Add efg|
|~f3 ded|cAB c2e|dcA GFG|Ad^c d2:|
|:A|dfa afd|dfa agf|~g3 ged|^cde gfg|
|afd fed|cAB c2e|dcA GFG|Ad^c d2:|
